X:6657
T:the Corsican Fairy
O:england
R:Jig
M:6/8
A:Westmorland
N:P31 2/2
K:Am
A2c e2c|d2A f2d|ecA aec|BGE E3|\
A2c e2c|dAd fga|edc BAG|A3A3||\
EGB dBG|Aed cBA|Daf ecA|BGE E3|\
AEG FDE|DFA dfa|edc BAG|A3A3|]
